X: 29228
T: New Hands
R: jig
M: 6/8
K: Eminor
fgg fed|eBB fgg|fed eBB|fgg fed|
eBB dAc|Bcd cBA|BAG AGF|GFD Ede||
fgg fed|eBB Bef|fge fed|ebb bef|
fge fed|edB dBc|BAG AGF|GFD E2F||
|:GEE CEB,|DEE CEB,|DEE CEB,|B,CD FGA|
GFD CEB,|DEE CEB,|B,CD FGA|GFD E2F:|
fgg fed|eBB Bef|fge fed|ebb bef|
fge fed|edB dAc|BAG AGF|GFD E/F/de||
fgg fed|eBB fgg|fed ebb|fgg fed|
eBB dAc|Bcd cBA|BAG AGF|GFD ECE||
|:GEE CEB,|DEE CEB,|DEE CEB,|B,CD FGA|
GFD CEB,|DEE CEB,|B,CD FGA|GFD E2F:|
|:fgg fed|eBB Bef|fge fed|ebb bef|
fge fed|edB dAc|BAG AGF|GFD E/F/de:|
|:GEE CEB,|DEE CEB,|DEE CEB,|B,CD FGA|
G2E CEB,|DEE CEB,|B,CD FGA|GFD E2F:|

